X:24
T:Da Dykes O' Voe
F:http://www.hiico.com/.abc/da_dykes.abc
K:D
M:4/4
L:1/16
Z:Lee Wenzbauer lee@hiico.com 19 Sep 2004
|: ABAFD2AB | =c2c2BGGz | ABAFD3g |1 faged4 :|2 faged3e |
|: fdged3g | fdgdfdge | fdged3g |1 fdged3e :|2 fdged4 ||
